X:1
T:James Gibb editions
T:Sancta et immaculata - Guerrero
T:#
%%score [ 1 2 3 4 ]
L:1/8
Q:1/4=100
M:2/2
K:F
V:1 treble nm="Soprano I" snm="S I"
V:2 treble nm="Soprano II" snm="S II"
V:3 treble nm="Soprano III" snm="S III"
V:4 treble nm="Alto" snm="A"
V:1
"^Sancta et immaculata""^Francisco Guerrero\n(1528-99)" z8 | z8 | d8 | c4 f4- | f2 d2 f2 f2 | %5
w: ||San-|cta et|* im- ma- cu-|
 e4 d4 | z2 d4 c2 | d2 g2 f2 (g2- | gf d2) e4 | d8 | z2 d4 c2 | f2 d2 f2 f2 | e4 c4 | %13
w: la- ta,|san- cta|et im- ma- cu\-|* * * la-|ta,|san- cta|et im- ma- cu-|la- ta|
 z2 (f3 e) d2- | d2 ^c2 d2 A2 | (BcdB c2) c2 | d8- | d8 | z4 z2 d2 | d2 d2 f4- | f2 (d3 e f2) | %21
w: vir\- * gi\-|* ni- tas, vir-|gi\- * * * * ni-|tas||qui-|bus te lau\-|* di\- * *|
 e4 z2 g2- | gg g2 ^f2 g2 | ^f8 | z8 | z4 z2 G2 ||S d6 ^c2 | d2 e2 f3 f | g2 (d3 efd | e2) f4 B2 | %30
w: bus ef\-|* fe- rant ne- sci-|o.||Qui-|a quem|cae- li ca- pe-|re non * * *|* po- te-|
 (c4 B3 c | d4) z2 g2- | g2 f4 _e2 | d4 z4 | z2 A4 A2 | G2 B2 A2 c2 | B2 (AG F3 G | AG G4 ^F2) | %38
w: rant, * *|* non|* po- te-|rant|tu- o|gre- mi- o con-|tu- li\- * * *||
 G4 z2 g2- | g2 g2 (d3 e | f2) e2 g4 | z2 g4 g2 | f2 f2 f4 | d2 c2 d4 | d16!fine! || %45
w: sti, tu\-|* o gre\- *|* mi- o,|tu- o|gre- mi- o|con- tu- li-|sti.|
"^Secunda pars" z8 | z8 | z8 | z8 | z8 | z8 | d6 f2 | e2 c2 d4 | z8 | z2 d2 f2 c2 | d2 e2 f4 | %56
w: ||||||Be- ne-|di- cta tu||in mu- li-|e- ri- bus,|
 z2 e2 f3 e | d2 ^c2 d4- | d4 z4 | d4 ^c2 c2 | d4 e4 | f2 d4 c2 | B2 (A2 B4) | G4 d4 | %64
w: in mu- li-|e- ri- bus||et be- ne-|di- ctus|fru- ctus ven-|tris tu\- *|i, fru-|
 d2 d2 e2 (g2- | g2 ^fe f4) | g4 z4 | z4 z2"^al fine" G2 |] %68
w: ctus ven- tris tu\-||i.|Qui-|
V:2
 z8 | z8 | z8 | z8 | z8 | z8 | z8 | z4 d4- | d4 c4 | f6 d2 | f2 f2 e4 | d2 (A3 GAB | c2 G2) (A3 B | %13
w: |||||||San\-|* cta|et im-|ma- cu- la-|ta vir\- * * *|* * gi\- *|
 c2) (d3 c/B/ A2) | G4 z2 d2 | (d4 _e2 g2- | g2) ^f2 g4- | g4 z4 | d4 d2 d2 | f2 f2 d4 | %20
w: * ni\- * * *|tas, vir-|gi\- * *|* ni- tas||qui- bus te|lau- di- bus,|
 z2 A2 A2 A2 | c3 c d2 d2- | dd _e2 d2 c2 | d8 | z2 G2 d4- | d2 c2 d2 e2 || f4 e4 | (d2 cB A4) | %28
w: qui- bus te|lau- di- bus ef\-|* fe- rant ne- sci-|o.|Qui- a|* quem cae- li|ca- pe-|re, * * *|
 z2 G2 d4- | d2 c2 d2 e2 | f3 f d2 g2- | g2 f4 e2 | d4 z4 | z2 d2 d2 ^c2 | d4 z2 d2- | %35
w: qui- a|* quem cae- li|ca- pe re non|* po- te-|rant,|non po- te-|rant tu\-|
 d2 d2 c2 _e2 | d4 (A3 B | c2) G2 (A4 | G2 B2 A2 c2- | c2 BA) B4 | z4 d4- | d2 d2 c2 _e2 | %42
w: * o gre- mi-|o con\- *|* tu- li\-||* * * sti,|tu\-|* o gre- mi-|
 d4 c3 c | (B2 AG A4) | G16 || z8 | z4 d4- | d2 f2 e2 c2 | d4 g4 | f3 e (d2 c2- | cB c2 A4) | %51
w: o con- tu-|li\- * * *|sti.||Be\-|* ne- di- cta|tu in|mu- li- e\- *|* * * ri-|
 G4 z4 | z4 z2 d2- | d2 f2 e2 c2 | d2 B2 c3 B | A2 G2 F4 | c4 d2 (cB) | A2 G2 A4 | z8 | z8 | %60
w: bus,|be\-|* ne- di- cta|tu in mu- li-|e- ri- bus,|in mu- li\- *|e- ri- bus|||
 z2 d2 ^c2 c2 | d4 e4 | f4 d2 g2- | g2 e2 (fedc | BA d4 ^c2) | d8 | z2 G2 d4- | d2 c2 d2 e2 |] %68
w: et be- ne-|di- ctus|fru- ctus ven\-|* tris tu\- * * *||i.|Qui- a|* quem cae- li|
V:3
 G8 | F4 B4- | B2 G2 B2 B2 | A4 (DEFG | A2) (B3 A) (d2- | d2 ^c2) (d=cBA | B4 A4) | G4 z4 | %8
w: San-|cta et|* im- ma- cu-|la- ta * * *|* vir\- * gi\-|* * ni\- * * *||tas,|
 z4 z2 A2- | A2 F2 A2 B2 | A2 B2 G2 A2- | A2 F2 F3 F | G2 c2 (cBAG | A2) A2 D4 | z2 (G3 ^F/E/ F2) | %15
w: san\-|* cta et im-|ma- cu- la- ta|* vir- gi- ni-|tas, vir- gi\- * * *|* ni- tas,|vir\- * * *|
 G8 | A4 G4 | z2 G2 G2 G2 | B2 A2 (B4- | B2 AG A2) D2 | D2 D2 F3 F | G2 c4 (BA | B2 c2 A2 G2 | %23
w: gi-|ni- tas|qui- bus te|lau- di- bus,|* * * * qui-|bus te lau- di-|bus ef- fe\- *|* rant ne- sci-|
 A4 z2 A2 | B6 A2 | B2 c2 B2 c2 || (B2 AG A4) | z2 A2 d2 d2- | dcBA B2) A2 | B2 (c3 B B2- | %30
w: o. Qui-|a quem|cae- li cape- *|re, * * *|qui- a quem|* * * * * cae-|li ca\- * *|
 B2) A2 (B4- | B2 AG A2) c2 | B2 A2 G4 | B2 (A4 G2- | G2 (^FE) F4 | z8 | z8 | z4 z2 d2- | %38
w: * pe- re|* * * * non|po- te- rant,|non po\- *|* te\- * rant|||tu\-|
 d2 d2 c2 _e2 | d4 z2 B2 | A2 c4 BA | B4) (G3 A) | (B2 AGAB A2- | AG G4) ^F2 | G16 || G6 B2 | %46
w: * o gre mi-|o con-|tu- li- sti, *|* con\- *|tu\- * * * * *|* * * li-|sti.|Be- ne-|
 A2 F2 G4 | d4 c2 A2 | (B2 G3 ABc | d3 c B2 A2- | AG G4) ^F2 | G4 z4 | z4 G4 | B2 F2 G2 A2 | %54
w: di- cta tu|in mu- li-|e\- * * * *||* * * ri-|bus,|in|mu- li- e- ri-|
 (B4 F4) | z2 G2 A3 G | F2 E2 D4 | z2 G2 ^F2 F2 | G4 A4 | B4 G2 A2- | A2 B2 G4 | A4 z4 | d6 B2 | %63
w: bus, *|in mu- li-|e- ri- bus|et be- ne-|di- ctus|fru- ctus ven\-|* tris tu-|i,|fru- ctus|
 c4 A2 (B2- | B2 A2 G4) | A4 z2 A2 | B6 A2 | B2 c2 B2 c2 |] %68
w: ven- tris tu\-||i. Qui-|a quem|cae- li ca- pe-|
V:4
 z8 | z8 | z8 | z8 | z8 | z4 G4- | G4 F4 | B6 G2 | B2 B2 A4 | D8 | z8 | D8 | C4 F4- | F2 D2 F2 F2 | %14
w: |||||San\-|* cta|et im-|ma- cu- la-|ta,||san-|cta et|* im ma- cu-|
 E4 D4 | z2 G2 C2 _E2 | D4 z2 G2 | G2 G2 (B3 A | G2) ^F2 G4 | z2 D2 D2 D2 | F4 D4 | C4 G4 | %22
w: la- ta|vir- gi- ni-|tas qui-|bus te lau\- *|* di- bus,|qui- bus te|lau- di-|bus ef-|
 G2 C2 D2 _E2 | D4 z2 D2 | G6 ^F2 | G2 A2 G2 C2 || D4 z4 | z4 D4 | G6 F2 | G2 A2 B2 G2 | F4 G4 | %31
w: fe- rant ne- sci-|o. Qui-|a quem|cae- li ca- pe-|re,|qui-|a quem|cae- li ca- pe-|re non|
 D6 C2 | D4 z2 G2- | G2 F4 _E2 | D8 | z8 | z2 D4 D2 | C2 _E2 D4 | z8 | G6 G2 | F2 A2 G4- | G4 C4 | %42
w: po- te-|rant, non|* po- te-|rant||tu- o|gre- mi- o,||tu- o|gre- mi- o|* con-|
 (D4 F4) | (G2 _E2 D4) | G,16 || z8 | z8 | z8 | z8 | D6 F2 | E2 C2 D4 | z2 G2 B2 F2 | G2 A2 B4 | %53
w: tu\- *|li\- * *|sti.|||||Be- ne-|di- cta tu|in mu- li-|e- ri- bus,|
 z8 | G4 A3 G | F2 E2 D4 | z2 G2 A3 G | F2 E2 D4 | z2 G2 ^F2 F2 | G4 E2 F2- | F2 G2 E2 E2 | %61
w: |in mu- li-|e- ri- bus,|in mu- li-|e- ri- bus,|et be- ne-|di- ctus fru\-|* ctus ven- tris|
 (D4 A4) | D4 (G3 F | ED C2) D2 G2- | G2 F2 E4 | D4 z2 D2 | G6 ^F2 | G2 A2 G2 C2 |] %68
w: tu\- *|i, fru\- *|* * * ctus ven\-|* tris tu-|i. Qui-|a quem|cae- li ca- pe-|

